X: 15234
T: Girl I Left Behind Me, The
R: polka
M: 2/4
K: Gmajor
M:4/4
|:(gf)|e(fed) B2 A2|GABG E2 (EF)|G2 (GF) GABc|d(edc) B2 (gf)|
efed B2 A2|GABG E2 G2|FGA(F DE)F(A|G4) G2:|
|:(GA)|Bde(f g2) fg|a(gfe) d2 (Bd)|ede(f af)ed|e2 f2 g2 (fg)|
efe(d .Bc)BA|GABG E(DEG)|FGA(F DE)F(A|G4) G2:|

